!!!COM: Music21
!!!OTL: Jota de Xestoso de Lor
!!!OMV: pezas_jotas_jota-de-xestoso-de-lor_jota-de-xestoso-de-lor-partitura.musicxml
**kern
*part1
*staff1
*I"Gaita
*I'Bag
*
*clefG^2
*k[]
*M3/4
=1
!LO:TX:a:B:t=Prestissimo
*MM220
!LO:TX:a:t=[quarter]=220
4r
8ggL
8ffJ
8eeL
8ffJ
=||
4gg
4aa
.
4ff
=
8ggL
8ffJ
*
8eeL
.
.
.
8ffJ
.
.
.
4gg
.
.
.
.
.
.
.
=
8aaL
8bbJ
8aaL
8ggJ
[4ff
.
.
.
.
.
.
.
=
4ff]
.
.
.
.
.
.
.
8dddL
8cccJ
8bbL
8aaJ
!!linebreak:original
=
8bbL
8cccJ
8bbL
8aaJ
4bb
=
4dd
.
.
.
.
.
.
.
8ddL
.
.
.
8eeJ
.
.
.
8ffL
.
.
.
8ggJ
.
.
.
=
8eeL
8ffJ
8eeL
8ddJ
[4cc
.
.
.
.
.
.
.
=
4cc]
.
.
.
.
.
.
.
8ggL
8ffJ
8eeL
8ffJ
=
4gg
4aa
.
4ff
=
8ggL
8ffJ
8eeL
.
.
.
8ffJ
.
.
.
4gg
.
.
.
.
.
.
.
!!linebreak:original
=
8aaL
8bbJ
8aaL
8ggJ
[4ff
.
.
.
.
.
.
.
=
4ff]
.
.
.
.
.
.
.
8dddL
8cccJ
8bbL
8aaJ
=
8bbL
.
.
.
8cccJ
.
.
.
8bbL
.
.
.
8aaJ
.
.
.
8ggL
.
.
.
8aaJ
.
.
.
=
8bbL
8cccJ
8bbL
8aaJ
8bbL
8ggJ
=
[2.ccc
.
.
.
=
4ccc]
8ggL
8ffJ
8eeL
8ffJ
=||
4gg
4aa
.
4ff
!!pagebreak:original
=
8ggL
8ffJ
8eeL
.
.
.
8ffJ
.
.
.
4gg
.
.
.
.
.
.
.
=
8aaL
8bbJ
8aaL
8ggJ
[4ff
.
.
.
.
.
.
.
=
4ff]
.
.
.
.
.
.
.
8dddL
8cccJ
8bbL
8aaJ
!!linebreak:original
=
8bbL
8cccJ
8bbL
8aaJ
4bb
=
4dd
.
.
.
.
.
.
.
8ddL
.
.
.
8eeJ
.
.
.
8ffL
.
.
.
8ggJ
.
.
.
=
8eeL
8ffJ
8eeL
8ddJ
[4cc
.
.
.
.
.
.
.
=
4cc]
.
.
.
.
.
.
.
8ggL
8ffJ
8eeL
8ffJ
=
4gg
4aa
.
4ff
=
8ggL
8ffJ
8eeL
.
.
.
8ffJ
.
.
.
4gg
.
.
.
.
.
.
.
!!linebreak:original
=
8aaL
8bbJ
8aaL
8ggJ
[4ff
.
.
.
.
.
.
.
=
4ff]
.
.
.
.
.
.
.
8dddL
8cccJ
8bbL
8aaJ
=
8bbL
.
.
.
8cccJ
.
.
.
8bbL
.
.
.
8aaJ
.
.
.
8ggL
.
.
.
8aaJ
.
.
.
!!pagebreak:original
=
8bbL
8cccJ
8bbL
8aaJ
8bbL
8ggJ
=||
[2.ccc
.
.
.
=
4ccc]
4gg
4gg
=||
4aa
12ffL
12gg
12ffJ
[4dd
.
.
.
.
.
.
.
=
4dd]
.
.
.
.
.
.
.
4aa
.
4aa
=
4bb
12ggL
12aa
12ggJ
[4ee
.
.
.
.
.
.
.
=
4ee]
.
.
.
.
.
.
.
8ggL
8ffJ
8eeL
8ggJ
!!linebreak:original
=
4ff
.
.
.
.
.
.
.
8ddL
.
.
.
8eeJ
.
.
.
8ffL
8ggJ
=
8aaL
8bbJ
8cccL
8dddJ
8cccL
8bbJ
=
4aa
8bbL
8aaJ
[4gg
.
.
.
.
.
.
.
=
4gg]
.
.
.
.
.
.
.
4gg
.
4gg
=
4aa
12ffL
12gg
12ffJ
[4dd
.
.
.
.
.
.
.
=
4dd]
.
.
.
.
.
.
.
4aa
.
4aa
!!linebreak:original
=
4bb
12ggL
12aa
12ggJ
[4ee
.
.
.
.
.
.
.
=
4ee]
.
.
.
.
.
.
.
8ggL
8ffJ
8eeL
8ggJ
=
4ff
.
.
.
.
.
.
.
8ddL
8eeJ
8ffL
8ggJ
=
8ffL
8eeJ
8ddL
8eeJ
8ffL
8ddJ
=
[2.ee
.
.
.
=
4ee]
4gg
4gg
=||
4aa
12ffL
12gg
12ffJ
[4dd
.
.
.
.
.
.
.
!!pagebreak:original
=
4dd]
.
.
.
.
.
.
.
4aa
.
4aa
=
4bb
12ggL
12aa
12ggJ
[4ee
.
.
.
.
.
.
.
=
4ee]
.
.
.
.
.
.
.
8ggL
8ffJ
8eeL
8ggJ
!!linebreak:original
=
4ff
.
.
.
.
.
.
.
8ddL
.
.
.
8eeJ
.
.
.
8ffL
8ggJ
=
8aaL
8bbJ
8cccL
8dddJ
8cccL
8bbJ
=
4aa
8bbL
8aaJ
[4gg
.
.
.
.
.
.
.
=
4gg]
.
.
.
.
.
.
.
4gg
.
4gg
=
4aa
12ffL
12gg
12ffJ
[4dd
.
.
.
.
.
.
.
=
4dd]
.
.
.
.
.
.
.
4aa
.
4aa
!!linebreak:original
=
4bb
12ggL
12aa
12ggJ
[4ee
.
.
.
.
.
.
.
=
4ee]
.
.
.
.
.
.
.
8ggL
8ffJ
8eeL
8ggJ
=
4ff
.
.
.
.
.
.
.
8ddL
8eeJ
8ffL
8ggJ
=
8ffL
8eeJ
8ddL
8eeJ
8ffL
8ddJ
!!pagebreak:original
=
[2.ee
.
.
.
=
*k[b-e-a-]
*E-:
4ee]
4ccc
4bbn
=||
4gg
.
.
.
.
.
.
.
8ee-L
8ffJ
4gg
=
4ff
4aa-
.
4ccc
.
.
.
.
.
.
.
=
[2.gg
.
.
.
.
.
.
.
.
.
.
.
=
4gg]
8ccL
8ddJ
8ee-L
8ffJ
!!linebreak:original
=
8ggL
8aa-J
8ggL
8ffJ
4gg
=
4aa-
.
.
.
.
.
.
.
8ggL
8ffJ
8ee-L
8ffJ
=
[2.dd
.
.
.
.
.
.
.
.
.
=
4dd]
4dd
.
4ee-
.
.
.
.
.
.
.
=
4ff
2dd
.
.
=
4ff
4aa-
.
4ccc
!!linebreak:original
=
2.bbn
.
.
.
.
.
.
.
.
.
.
.
.
=
2aa-
.
.
.
.
.
.
.
.
4ff
=
4gg
.
.
.
.
.
.
.
4ccc
4bbn
.
=
2bb-
.
.
.
4aa-
.
=
[2.gg
.
.
.
.
.
.
.
.
.
.
.
.
.
.
=
4gg]
4ccc
4bbn
!!pagebreak:original
=
4gg
.
.
.
.
.
.
.
8ee-L
8ffJ
4gg
.
.
.
.
.
.
.
=
2aa-
.
.
.
.
.
.
.
.
.
.
.
.
.
.
.
4gg
=
[2.ff
.
.
.
.
=
4ff]
.
.
.
.
.
.
.
8ffL
8ggJ
8aa-L
8ffJ
=
4gg
2ccc
.
.
.
.
.
.
.
.
.
.
.
.
.
.
.
=
2ff
.
.
.
.
.
.
.
*
.
.
4gg
=||
*k[]
*C:
[2.ee
.
.
.
!!linebreak:original
=
4ee]
8ggL
8ffJ
8eeL
8ffJ
=||
[2.ccc
.
.
.
=
8ccc]
8r
2r
==
*-
!!!system-decoration: s1,s2,s3,s4
